src/lib/packages/icons/src/assets/filled/clipboard-text.svg

<svg width="24" height="24" viewBox="0 0 24 24" fill="none" xmlns="http://www.w3.org/2000/svg">
<path d="M8 5.5V4.5C8 3.5 8.5 3 9.5 3H14.5C15.5 3 16 3.5 16 4.5V5.5C16 6.5 15.5 7 14.5 7H9.5C8.5 7 8 6.5 8 5.5ZM20 8V18C20 20 19 21 17 21H7C5 21 4 20 4 18V8C4 6.258 4.75189 5.27701 6.26489 5.05701C6.38589 5.03901 6.5 5.13899 6.5 5.26099V5.49902C6.5 7.31902 7.68 8.49902 9.5 8.49902H14.5C16.32 8.49902 17.5 7.31902 17.5 5.49902V5.26099C17.5 5.13899 17.6151 5.03901 17.7351 5.05701C19.2481 5.27701 20 6.258 20 8ZM13.75 16C13.75 15.586 13.414 15.25 13 15.25H9C8.586 15.25 8.25 15.586 8.25 16C8.25 16.414 8.586 16.75 9 16.75H13C13.414 16.75 13.75 16.414 13.75 16ZM15.75 12C15.75 11.586 15.414 11.25 15 11.25H9C8.586 11.25 8.25 11.586 8.25 12C8.25 12.414 8.586 12.75 9 12.75H15C15.414 12.75 15.75 12.414 15.75 12Z" fill="currentColor"/>
</svg>

<svg xmlns="http://www.w3.org/2000/svg" width="24" height="24" fill="none"><path fill="currentColor" d="M8 5.5v-1C8 3.5 8.5 3 9.5 3h5c1 0 1.5.5 1.5 1.5v1c0 1-.5 1.5-1.5 1.5h-5C8.5 7 8 6.5 8 5.5ZM20 8v10c0 2-1 3-3 3H7c-2 0-3-1-3-3V8c0-1.742.752-2.723 2.265-2.943a.21.21 0 0 1 .235.204v.238c0 1.82 1.18 3 3 3h5c1.82 0 3-1.18 3-3v-.238a.21.21 0 0 1 .235-.204C19.248 5.277 20 6.258 20 8Zm-6.25 8a.75.75 0 0 0-.75-.75H9a.75.75 0 0 0 0 1.5h4a.75.75 0 0 0 .75-.75Zm2-4a.75.75 0 0 0-.75-.75H9a.75.75 0 0 0 0 1.5h6a.75.75 0 0 0 .75-.75Z"/></svg>
